assets/images/members/directtrust/directtrust.svg

<svg xmlns="http://www.w3.org/2000/svg" baseProfile="tiny-ps" viewBox="0 0 486 104"><title>DirectTrust</title><style>.shp0{fill:#6d6e70}.shp1{fill:#2aa857}</style><g id="Direct"><path id="D" fill-rule="evenodd" d="M166.5 48.2c0 12.8-9.5 21.6-23.4 21.6h-18.2V26.6h18.2c13.9 0 23.4 8.8 23.4 21.6m-6.3 0c0-9.7-6.8-16.2-17.5-16.2H131v32.4h11.7c10.7 0 17.6-6.5 17.5-16.2" class="shp0"/><path id="i" d="M175 37.1h5.9v32.7H175z" class="shp0"/><path id="idot" d="M182 26.8c0 2.3-1.7 4-4 4s-4-1.6-4-3.8 1.7-3.9 4-3.9 4 1.6 4 3.7" class="shp0"/><path id="r" d="M209.9 36.8v5.7c-.5-.1-1-.1-1.4-.1-6.3 0-10.3 3.9-10.3 11.1v16.3h-5.9V37.1h5.7v5.5c2.1-3.9 6.1-5.8 11.9-5.8" class="shp0"/><path id="e" fill-rule="evenodd" d="M246.4 53.7c0 .5 0 1.2-.1 1.8h-26.6c.8 5.8 5.4 9.6 11.9 9.6 3.9 0 7.1-1.3 9.5-4l3.3 3.8c-3 3.4-7.5 5.3-12.9 5.3-10.6 0-17.6-6.9-17.6-16.7 0-9.7 6.9-16.7 16.4-16.7 9.4 0 16.2 6.8 16.1 16.9m-5.6-2.5c-.6-5.5-4.8-9.4-10.5-9.4s-9.9 3.8-10.5 9.4z" class="shp0"/><path id="c" d="M257.7 53.5c0 7.2 4.8 11.6 11.2 11.6 3.6 0 6.8-1.5 8.9-4.7l4.5 2.8c-2.6 4.5-7.4 7-13.3 7-10.1 0-17.3-6.9-17.3-16.7s7.2-16.7 17.3-16.7c5.8 0 10.7 2.4 13.3 7l-4.5 2.9c-2.1-3.2-5.3-4.7-8.9-4.7-6.4 0-11.3 4.5-11.2 11.5" class="shp0"/><path id="t" d="m307 63.7 1.9 4.3c-1.8 1.6-4.5 2.3-7.2 2.3-6.6 0-10.4-3.7-10.4-10.3V42h-5.6v-4.9h5.6v-7.2h5.9v7.2h9.4V42h-9.4v17.7c0 3.5 1.8 5.5 5.1 5.5 1.7 0 3.4-.6 4.7-1.5" class="shp0"/></g><g id="Trust"><path id="T" d="M310.6 26.6h35.7V32h-14.8v37.8h-6.1V32h-14.8z" class="shp1"/><path d="M369 36.8v5.7c-.5-.1-1-.1-1.4-.1-6.3 0-10.3 3.9-10.3 11.1v16.3h-5.9V37.1h5.7v5.5c2.1-3.9 6.2-5.8 11.9-5.8" class="shp1"/><path id="u" d="M401.4 54V37.1h5.9v32.7h-5.6v-4.9c-2.4 3.4-6.5 5.3-11.1 5.3-8.5 0-14.1-4.7-14.1-14.3V37.1h5.9v18.2c0 6.4 3.2 9.6 8.8 9.6 6.1 0 10.1-3.9 10.1-10.9z" class="shp1"/><path id="s" d="M441.9 60.3c0 5.9-5.4 9.7-14.1 9.7-5.4 0-10.8-1.6-13.5-3.8l2.5-4.7c2.8 2 7.2 3.4 11.5 3.4 5.5 0 7.8-1.6 7.8-4.4 0-7.3-20.7-1-20.7-14 0-5.8 5.3-9.8 13.7-9.8 4.2 0 9.1 1.1 11.9 3l-2.5 4.7c-3-1.9-6.3-2.6-9.5-2.6-5.2 0-7.7 1.9-7.7 4.5 0 7.8 20.8 1.5 20.6 14" class="shp1"/><path d="M466.1 63.7 468 68c-1.8 1.6-4.5 2.3-7.2 2.3-6.6 0-10.4-3.7-10.4-10.3V42h-5.6v-4.9h5.6v-7.2h5.9v7.2h9.4V42h-9.4v17.7c0 3.5 1.8 5.5 5.1 5.5 1.8 0 3.4-.6 4.7-1.5" class="shp1"/></g><g id="TM"><path d="M468 26.6h7.1v1.1h-2.8v6.7h-1.4v-6.7H468z" class="shp0"/><path id="M" d="M485.4 34.4h-1.3v-5.5l-3 4.6h-.6l-2.9-4.5v5.4h-1.3v-7.8h1.1l3.5 5.3 3.4-5.3h1.1z" class="shp0"/></g><g id="Mark"><path id="Checkmark" d="m51.5 92.5 31.6-18.2V85l-31.6 18.2-10.4-6V86.6z" class="shp1"/><path id="Shield" d="m100.1 13.8 2.3 1.3v43.6c0 9.3-5 18-13.1 22.7l-3.1 1.8V72.4c4.3-3.2 6.9-8.3 6.9-13.7V20.5C67.2 6.6 35.7 6.6 9.8 20.5v38c0 6 3.3 11.7 8.5 14.7L38 84.6v10.7l-24.3-14C5.6 76.6.6 67.9.6 58.6V15l2.3-1.3c30-17.3 67.2-17.3 97.2.1" class="shp0"/><path id="Person body" d="M36.1 44.9c3.3 4.9 9 8.1 15.4 8.1s12-3.2 15.4-8.1c2.8 3.5 4.3 7.8 4.3 12.3v11.4L51.5 80 31.8 68.6V57.2c0-4.5 1.5-8.8 4.3-12.3" class="shp0"/><path id="Person head" d="M53.71 48.02c-7.54 1.22-14.61-3.89-15.83-11.42-1.21-7.54 3.89-14.61 11.43-15.83 7.53-1.21 14.6 3.89 15.82 11.43 1.22 7.53-3.89 14.6-11.42 15.82" class="shp0"/></g></svg>

<svg version="1.2" baseProfile="tiny-ps" xmlns="http://www.w3.org/2000/svg" viewBox="0 0 486 104">
	<title>DirectTrust</title>
	<style>
		tspan { white-space:pre }
		.shp0 { fill: #6d6e70 } 
		.shp1 { fill: #2aa857 } 
	</style>
	<g id="Direct">
		<path id="D" fill-rule="evenodd" class="shp0" d="M166.5 48.2C166.5 61 157 69.8 143.1 69.8L124.9 69.8L124.9 26.6L143.1 26.6C157 26.6 166.5 35.4 166.5 48.2ZM160.2 48.2C160.2 38.5 153.4 32 142.7 32L131 32L131 64.4L142.7 64.4C153.4 64.4 160.3 57.9 160.2 48.2Z" />
		<path id="i" class="shp0" d="M175 37.1L180.9 37.1L180.9 69.8L175 69.8L175 37.1Z" />
		<path id="idot" class="shp0" d="M182 26.8C182 29.1 180.3 30.8 178 30.8C175.7 30.8 174 29.2 174 27C174 24.8 175.7 23.1 178 23.1C180.3 23.1 182 24.7 182 26.8Z" />
		<path id="r" class="shp0" d="M209.9 36.8L209.9 42.5C209.4 42.4 208.9 42.4 208.5 42.4C202.2 42.4 198.2 46.3 198.2 53.5L198.2 69.8L192.3 69.8L192.3 37.1L198 37.1L198 42.6C200.1 38.7 204.1 36.8 209.9 36.8Z" />
		<path id="e" fill-rule="evenodd" class="shp0" d="M246.4 53.7C246.4 54.2 246.4 54.9 246.3 55.5L219.7 55.5C220.5 61.3 225.1 65.1 231.6 65.1C235.5 65.1 238.7 63.8 241.1 61.1L244.4 64.9C241.4 68.3 236.9 70.2 231.5 70.2C220.9 70.2 213.9 63.3 213.9 53.5C213.9 43.8 220.8 36.8 230.3 36.8C239.7 36.8 246.5 43.6 246.4 53.7ZM240.8 51.2C240.2 45.7 236 41.8 230.3 41.8C224.6 41.8 220.4 45.6 219.8 51.2L240.8 51.2Z" />
		<path id="c" class="shp0" d="M257.7 53.5C257.7 60.7 262.5 65.1 268.9 65.1C272.5 65.1 275.7 63.6 277.8 60.4L282.3 63.2C279.7 67.7 274.9 70.2 269 70.2C258.9 70.2 251.7 63.3 251.7 53.5C251.7 43.7 258.9 36.8 269 36.8C274.8 36.8 279.7 39.2 282.3 43.8L277.8 46.7C275.7 43.5 272.5 42 268.9 42C262.5 42 257.6 46.5 257.7 53.5Z" />
		<path id="t" class="shp0" d="M307 63.7L308.9 68C307.1 69.6 304.4 70.3 301.7 70.3C295.1 70.3 291.3 66.6 291.3 60L291.3 42L285.7 42L285.7 37.1L291.3 37.1L291.3 29.9L297.2 29.9L297.2 37.1L306.6 37.1L306.6 42L297.2 42L297.2 59.7C297.2 63.2 299 65.2 302.3 65.2C304 65.2 305.7 64.6 307 63.7Z" />
	</g>
	<g id="Trust">
		<path id="T" class="shp1" d="M310.6 26.6L346.3 26.6L346.3 32L331.5 32L331.5 69.8L325.4 69.8L325.4 32L310.6 32L310.6 26.6Z" />
		<path id="r" class="shp1" d="M369 36.8L369 42.5C368.5 42.4 368 42.4 367.6 42.4C361.3 42.4 357.3 46.3 357.3 53.5L357.3 69.8L351.4 69.8L351.4 37.1L357.1 37.1L357.1 42.6C359.2 38.7 363.3 36.8 369 36.8Z" />
		<path id="u" class="shp1" d="M401.4 54L401.4 37.1L407.3 37.1L407.3 69.8L401.7 69.8L401.7 64.9C399.3 68.3 395.2 70.2 390.6 70.2C382.1 70.2 376.5 65.5 376.5 55.9L376.5 37.1L382.4 37.1L382.4 55.3C382.4 61.7 385.6 64.9 391.2 64.9C397.3 64.9 401.3 61 401.3 54L401.4 54Z" />
		<path id="s" class="shp1" d="M441.9 60.3C441.9 66.2 436.5 70 427.8 70C422.4 70 417 68.4 414.3 66.2L416.8 61.5C419.6 63.5 424 64.9 428.3 64.9C433.8 64.9 436.1 63.3 436.1 60.5C436.1 53.2 415.4 59.5 415.4 46.5C415.4 40.7 420.7 36.7 429.1 36.7C433.3 36.7 438.2 37.8 441 39.7L438.5 44.4C435.5 42.5 432.2 41.8 429 41.8C423.8 41.8 421.3 43.7 421.3 46.3C421.3 54.1 442.1 47.8 441.9 60.3Z" />
		<path id="t" class="shp1" d="M466.1 63.7L468 68C466.2 69.6 463.5 70.3 460.8 70.3C454.2 70.3 450.4 66.6 450.4 60L450.4 42L444.8 42L444.8 37.1L450.4 37.1L450.4 29.9L456.3 29.9L456.3 37.1L465.7 37.1L465.7 42L456.3 42L456.3 59.7C456.3 63.2 458.1 65.2 461.4 65.2C463.2 65.2 464.8 64.6 466.1 63.7Z" />
	</g>
	<g id="TM">
		<path id="T" class="shp0" d="M468 26.6L475.1 26.6L475.1 27.7L472.3 27.7L472.3 34.4L470.9 34.4L470.9 27.7L468 27.7L468 26.6Z" />
		<path id="M" class="shp0" d="M485.4 34.4L484.1 34.4L484.1 28.9L481.1 33.5L480.5 33.5L477.6 29L477.6 34.4L476.3 34.4L476.3 26.6L477.4 26.6L480.9 31.9L484.3 26.6L485.4 26.6L485.4 34.4Z" />
	</g>
	<g id="Mark">
		<path id="Checkmark" class="shp1" d="M51.5 92.5L83.1 74.3L83.1 85L51.5 103.2L41.1 97.2L41.1 86.6L51.5 92.5Z" />
		<path id="Shield" class="shp0" d="M100.1 13.8L102.4 15.1L102.4 58.7C102.4 68 97.4 76.7 89.3 81.4L86.2 83.2L86.2 72.4C90.5 69.2 93.1 64.1 93.1 58.7L93.1 20.5C67.2 6.6 35.7 6.6 9.8 20.5L9.8 58.5C9.8 64.5 13.1 70.2 18.3 73.2L38 84.6L38 95.3L13.7 81.3C5.6 76.6 0.6 67.9 0.6 58.6L0.6 15L2.9 13.7C32.9 -3.6 70.1 -3.6 100.1 13.8Z" />
		<path id="Person body" class="shp0" d="M36.1 44.9C39.4 49.8 45.1 53 51.5 53C57.9 53 63.5 49.8 66.9 44.9C69.7 48.4 71.2 52.7 71.2 57.2L71.2 68.6L51.5 80L31.8 68.6L31.8 57.2C31.8 52.7 33.3 48.4 36.1 44.9Z" />
		<path id="Person head" class="shp0" d="M53.71 48.02C46.17 49.24 39.1 44.13 37.88 36.6C36.67 29.06 41.77 21.99 49.31 20.77C56.84 19.56 63.91 24.66 65.13 32.2C66.35 39.73 61.24 46.8 53.71 48.02Z" />
	</g>
</svg>
